icons/desktop/40/heart-40.svg

<svg width="40" height="40" viewBox="0 0 40 40" fill="none" xmlns="http://www.w3.org/2000/svg">
<path d="M12.0629 19.7852C12.6955 19.2508 13.6414 19.3306 14.1762 19.963C14.5157 20.3647 14.8012 20.686 14.9994 20.9054C15.0983 21.0148 15.1764 21.0998 15.2279 21.1554C15.2533 21.1827 15.2722 21.2038 15.2846 21.2169L15.3022 21.2345C15.722 21.6762 16.1791 22.1425 16.6733 22.628L17.1801 23.1202L17.1811 23.1212C17.6268 23.5494 18.1031 23.9924 18.6068 24.4454C19.2227 24.9993 19.2729 25.9476 18.7192 26.5636C18.1652 27.1795 17.217 27.2298 16.601 26.6759C16.0731 26.2012 15.5729 25.7357 15.1029 25.2843C14.3756 24.5866 13.7173 23.9216 13.1274 23.3009L13.1195 23.2931C13.1149 23.2881 13.108 23.2811 13.1 23.2725C13.0834 23.2549 13.0596 23.2296 13.0297 23.1974C12.9693 23.1324 12.8826 23.0374 12.7738 22.9171C12.5562 22.6763 12.249 22.329 11.8852 21.8985C11.3509 21.2658 11.4304 20.3199 12.0629 19.7852Z" fill="black"/>
<path fill-rule="evenodd" clip-rule="evenodd" d="M3.26994 8.33993C5.76003 5.16867 9.1381 3.71334 12.5053 4.04599C15.5813 4.34998 18.4516 6.12595 20.4858 9.05868C22.4486 6.2036 25.2458 4.46009 28.2582 4.11239C31.5313 3.73475 34.8637 5.0287 37.3949 7.96298C39.3384 10.2163 40.1725 13.0209 39.9662 15.7393C39.9675 15.7897 39.9662 15.8405 39.9623 15.8917C39.849 17.3923 39.2884 18.934 38.5942 20.339C37.8921 21.7597 37.0061 23.1359 36.1518 24.3263C35.2947 25.5203 34.4519 26.5512 33.8246 27.2833C33.5104 27.6501 33.2487 27.9441 33.0639 28.1475C32.9716 28.2492 32.8981 28.3281 32.8471 28.3829C32.8216 28.4103 32.8016 28.4324 32.7875 28.4474C32.7807 28.4546 32.7749 28.4598 32.7709 28.464C32.7689 28.4661 32.7673 28.4685 32.766 28.4698L32.7641 28.4718C32.2777 28.9835 31.745 29.5251 31.1654 30.0909L30.5697 30.6651C28.6083 32.5299 26.4895 34.2087 24.309 35.753C24.2995 35.7601 24.2914 35.7696 24.2817 35.7765L24.2309 35.8126C22.0665 37.3422 19.1956 37.3948 16.9828 35.9659L16.7709 35.8233C15.0323 34.6015 13.3156 33.2959 11.7035 31.8468C10.3568 30.6352 9.20242 29.4925 8.23185 28.4727L9.31779 27.4386C8.23147 28.4722 8.23109 28.472 8.23087 28.4718L8.22892 28.4698C8.22769 28.4685 8.22604 28.4661 8.22404 28.464C8.22004 28.4597 8.21436 28.4537 8.20744 28.4464C8.1934 28.4315 8.17327 28.4102 8.14786 28.3829C8.09686 28.3281 8.02335 28.2492 7.93107 28.1475C7.74627 27.9441 7.48454 27.6501 7.17033 27.2833C6.54304 26.5511 5.70021 25.5194 4.84318 24.3253C3.9888 23.1348 3.10284 21.7586 2.40079 20.338C1.70664 18.9333 1.14603 17.3928 1.03263 15.8927L1.00919 15.4864C0.975073 14.5525 1.06703 13.7068 1.17033 13.0782C1.22992 12.7156 1.29466 12.4161 1.34611 12.2032C1.37184 12.0968 1.39463 12.011 1.41154 11.9493C1.41993 11.9187 1.42666 11.8938 1.43204 11.8751C1.43472 11.8658 1.43705 11.8578 1.43888 11.8517L1.44279 11.8399V11.838C1.4429 11.8378 1.44878 11.8397 2.02091 12.0128L1.44279 11.838L1.44376 11.836C1.81918 10.6002 2.42601 9.41464 3.26994 8.33993ZM12.2104 7.03231C9.96988 6.81097 7.55616 7.73992 5.63029 10.1925C5.01978 10.9699 4.5845 11.8203 4.31583 12.7022C4.31575 12.7025 4.31566 12.7043 4.31486 12.7071C4.3131 12.7132 4.30978 12.7252 4.30509 12.7423C4.29561 12.7769 4.28031 12.833 4.26212 12.9083C4.22557 13.0595 4.17619 13.2852 4.13029 13.5645C4.04896 14.0594 3.98271 14.6968 4.00724 15.3741L4.02384 15.6661L4.06486 16.0333C4.19445 16.91 4.5533 17.9223 5.09025 19.0089C5.696 20.2347 6.48405 21.4663 7.28068 22.5763C8.07476 23.6827 8.86078 24.6449 9.44865 25.3311C9.74185 25.6734 9.98411 25.9454 10.1518 26.13C10.2356 26.2222 10.301 26.2926 10.3442 26.339C10.3657 26.3621 10.3817 26.3798 10.392 26.3907C10.397 26.3961 10.4006 26.4002 10.4027 26.4024L10.4047 26.4044L11.1303 27.1524C11.8887 27.9215 12.7464 28.7498 13.7084 29.6153C15.2023 30.9582 16.8162 32.1891 18.4955 33.3692L18.725 33.5177C19.895 34.2098 21.3757 34.1576 22.5004 33.3624L22.5014 33.3614C22.5168 33.3496 22.5313 33.3366 22.5473 33.3253C24.6504 31.8373 26.6607 30.2421 28.5024 28.4913L29.0697 27.9444C29.6218 27.4055 30.1278 26.89 30.5893 26.4044C30.5896 26.4041 30.5913 26.4034 30.5922 26.4024C30.5943 26.4002 30.598 26.396 30.6029 26.3907C30.6132 26.3798 30.6302 26.3621 30.6518 26.339C30.6949 26.2926 30.7596 26.222 30.8432 26.13C31.0108 25.9454 31.253 25.6734 31.5463 25.3311C32.1341 24.6451 32.9203 23.6835 33.7143 22.5772C34.5108 21.4674 35.299 20.2356 35.9047 19.0099C36.4947 17.816 36.8662 16.7108 36.9584 15.7774C36.9596 15.7481 36.9604 15.7181 36.9633 15.6886C37.1619 13.6853 36.5711 11.6015 35.1235 9.92294C33.1839 7.67453 30.8042 6.83873 28.602 7.09286C26.3835 7.34893 24.1498 8.73563 22.5961 11.3204L22.5951 11.3224L22.5483 11.4005L22.5473 11.3995C21.6431 12.9011 19.5015 12.9515 18.5199 11.5392L18.4291 11.3985C16.7938 8.67774 14.4728 7.25599 12.2104 7.03231Z" fill="black"/>
</svg>

<!-- This Source Code Form is subject to the terms of the Mozilla Public
   - License, v. 2.0. If a copy of the MPL was not distributed with this
   - file, You can obtain one at http://mozilla.org/MPL/2.0/. -->
<svg xmlns="http://www.w3.org/2000/svg" width="40" height="40" fill="context-fill" fill-opacity="context-fill-opacity" viewBox="0 0 40 40">
    <path d="M12.063 19.785a1.5 1.5 0 0 1 2.113.178 38 38 0 0 0 1.052 1.192l.057.062.017.018q.63.663 1.371 1.393l.507.492.001.001q.67.643 1.426 1.324a1.5 1.5 0 0 1-2.006 2.23 62 62 0 0 1-3.474-3.374l-.008-.008-.019-.02a13 13 0 0 1-.326-.356c-.218-.24-.525-.588-.889-1.019a1.5 1.5 0 0 1 .178-2.113" />
    <path fill-rule="evenodd" d="M3.27 8.34c2.49-3.171 5.868-4.627 9.235-4.294 3.076.304 5.947 2.08 7.98 5.013 1.964-2.855 4.76-4.599 7.773-4.947 3.273-.377 6.606.917 9.137 3.851a10.63 10.63 0 0 1 2.571 7.776q.002.075-.004.153c-.113 1.5-.674 3.042-1.368 4.447-.702 1.42-1.588 2.797-2.442 3.987a45 45 0 0 1-3.088 3.822l-.217.235q-.038.042-.06.064-.01.012-.016.017l-.005.006-.002.002a61 61 0 0 1-1.599 1.619l-.595.574c-1.962 1.865-4.08 3.544-6.261 5.088q-.014.012-.027.023l-.051.037a6.48 6.48 0 0 1-7.248.153l-.212-.143c-1.739-1.221-3.455-2.527-5.068-3.976a63 63 0 0 1-3.471-3.374l1.086-1.034-1.087 1.033-.002-.002-.005-.006-.017-.018-.06-.063-.216-.235a44.517 44.517 0 0 1-3.088-3.822c-.854-1.191-1.74-2.567-2.442-3.988-.694-1.405-1.255-2.945-1.368-4.445l-.024-.407c-.034-.934.058-1.78.161-2.408a12 12 0 0 1 .242-1.129l.02-.074.007-.023.004-.012v-.002l.578.175-.578-.175v-.002A10.7 10.7 0 0 1 3.27 8.34m8.94-1.308c-2.24-.221-4.654.708-6.58 3.16a7.7 7.7 0 0 0-1.314 2.51l-.001.005a4 4 0 0 0-.053.201 9 9 0 0 0-.132.657 9.3 9.3 0 0 0-.123 1.81l.017.291.04.367c.13.877.49 1.89 1.026 2.976.606 1.226 1.394 2.457 2.19 3.567a42 42 0 0 0 3.064 3.763l.048.052.01.011.003.002.725.748a60 60 0 0 0 2.578 2.463c1.494 1.343 3.108 2.574 4.788 3.754l.229.149c1.17.692 2.65.64 3.775-.156h.001l.046-.037c2.103-1.488 4.114-3.083 5.955-4.834l.568-.547a58 58 0 0 0 1.52-1.54l.002-.002.01-.011.05-.052.191-.209a41.415 41.415 0 0 0 2.871-3.553c.797-1.11 1.585-2.341 2.19-3.567.59-1.194.962-2.3 1.054-3.233q.002-.044.005-.088a7.63 7.63 0 0 0-1.84-5.766c-1.94-2.248-4.319-3.084-6.521-2.83-2.218.256-4.452 1.643-6.006 4.227v.002l-.048.079v-.002c-.905 1.502-3.046 1.553-4.028.14l-.09-.14c-1.636-2.721-3.957-4.143-6.22-4.367" clip-rule="evenodd" />
</svg>
